flaticon/transport/bicycle-2.svg

<svg xmlns="http://www.w3.org/2000/svg" width="32" height="32" viewBox="0 0 24 24">
    <path d="M 20 11.394531 C 19.378906 11.394531 18.789062 11.539062 18.265625 11.792969 L 16.800781 9.515625 C 16.761719 9.476562 16.71875 9.441406 16.667969 9.410156 L 15.71875 7.554688 L 17.601562 6.59375 C 17.722656 6.59375 17.839844 6.554688 17.921875 6.433594 C 18.039062 6.273438 18 5.996094 17.839844 5.875 L 16.238281 4.675781 C 16.078125 4.554688 15.800781 4.59375 15.679688 4.753906 C 15.558594 4.914062 15.601562 5.195312 15.761719 5.316406 L 16.832031 6.117188 L 15 7.035156 C 14.839844 7.113281 14.761719 7.355469 14.839844 7.554688 L 15.738281 9.355469 L 7.816406 9.355469 L 7.121094 8.195312 L 8.398438 8.195312 C 8.640625 8.195312 8.800781 8.035156 8.800781 7.792969 C 8.800781 7.554688 8.640625 7.394531 8.398438 7.394531 L 5.601562 7.394531 C 5.359375 7.394531 5.199219 7.554688 5.199219 7.792969 C 5.199219 8.035156 5.359375 8.195312 5.601562 8.195312 L 6.160156 8.195312 L 7.121094 9.800781 L 5.816406 11.835938 C 5.269531 11.554688 4.652344 11.394531 4 11.394531 C 1.800781 11.394531 0 13.195312 0 15.394531 C 0 17.59375 1.800781 19.394531 4 19.394531 C 5.964844 19.394531 7.609375 17.957031 7.9375 16.085938 L 9.601562 16.207031 C 9.605469 17.082031 10.324219 17.792969 11.199219 17.792969 C 12.078125 17.792969 12.800781 17.074219 12.800781 16.195312 C 12.800781 15.800781 12.65625 15.4375 12.417969 15.160156 L 16.382812 10.472656 L 17.546875 12.242188 C 16.605469 12.976562 16 14.117188 16 15.394531 C 16 17.59375 17.800781 19.394531 20 19.394531 C 22.199219 19.394531 24 17.59375 24 15.394531 C 24 13.195312 22.199219 11.394531 20 11.394531 Z M 15.578125 10.195312 L 11.765625 14.699219 C 11.589844 14.632812 11.398438 14.59375 11.199219 14.59375 C 10.785156 14.59375 10.40625 14.753906 10.121094 15.015625 L 8.199219 10.195312 Z M 4 18.59375 C 2.238281 18.59375 0.800781 17.15625 0.800781 15.394531 C 0.800781 13.636719 2.238281 12.195312 4 12.195312 C 4.492188 12.195312 4.960938 12.308594 5.378906 12.511719 L 3.679688 15.15625 C 3.601562 15.273438 3.601562 15.394531 3.640625 15.554688 C 3.679688 15.714844 3.800781 15.792969 3.960938 15.792969 L 7.136719 16.027344 C 6.839844 17.488281 5.542969 18.59375 4 18.59375 Z M 7.195312 15.226562 L 4.679688 15.035156 L 6.046875 12.9375 C 6.710938 13.492188 7.148438 14.3125 7.195312 15.226562 Z M 7.996094 15.289062 C 7.964844 14.066406 7.378906 12.980469 6.484375 12.265625 L 7.519531 10.675781 L 9.398438 15.394531 Z M 11.199219 16.996094 C 10.761719 16.996094 10.398438 16.636719 10.398438 16.195312 C 10.398438 15.753906 10.761719 15.394531 11.199219 15.394531 C 11.640625 15.394531 12 15.753906 12 16.195312 C 12 16.636719 11.640625 16.996094 11.199219 16.996094 Z M 20 18.59375 C 18.238281 18.59375 16.800781 17.15625 16.800781 15.394531 C 16.800781 14.398438 17.261719 13.5 17.984375 12.914062 L 19.71875 15.554688 C 19.839844 15.753906 20.078125 15.792969 20.28125 15.675781 C 20.480469 15.554688 20.519531 15.316406 20.398438 15.113281 L 18.703125 12.472656 C 19.097656 12.292969 19.539062 12.195312 20 12.195312 C 21.761719 12.195312 23.199219 13.636719 23.199219 15.394531 C 23.199219 17.15625 21.761719 18.59375 20 18.59375 Z M 20 18.59375"/>
</svg>

<svg xmlns="http://www.w3.org/2000/svg" width="32" height="32" viewBox="0 0 24 24">
    <path d="M20 11.395c-.621 0-1.21.144-1.734.398L16.8 9.516a.717.717 0 0 0-.133-.106l-.95-1.855 1.884-.961c.12 0 .238-.04.32-.16a.432.432 0 0 0-.082-.559l-1.602-1.2a.427.427 0 0 0-.558.079c-.121.16-.078.441.082.562l1.07.801L15 7.035c-.16.078-.238.32-.16.52l.898 1.8H7.816l-.695-1.16h1.277c.243 0 .403-.16.403-.402 0-.238-.16-.398-.403-.398H5.602c-.243 0-.403.16-.403.398 0 .242.16.402.403.402h.558l.961 1.606-1.305 2.035A3.96 3.96 0 0 0 4 11.395c-2.2 0-4 1.8-4 4 0 2.199 1.8 4 4 4a4.013 4.013 0 0 0 3.938-3.31l1.664.122a1.6 1.6 0 0 0 3.199-.012c0-.394-.145-.758-.383-1.035l3.965-4.687 1.164 1.77A3.993 3.993 0 0 0 16 15.394c0 2.199 1.8 4 4 4s4-1.801 4-4c0-2.2-1.8-4-4-4zm-4.422-1.2L11.766 14.7a1.591 1.591 0 0 0-1.645.316L8.2 10.196zM4 18.594a3.206 3.206 0 0 1-3.2-3.2c0-1.757 1.438-3.199 3.2-3.199.492 0 .96.114 1.379.317l-1.7 2.644c-.077.117-.077.239-.038.399.039.16.16.238.32.238l3.176.234A3.212 3.212 0 0 1 4 18.594zm3.195-3.367l-2.515-.192 1.367-2.098a3.2 3.2 0 0 1 1.148 2.29zm.801.062a3.998 3.998 0 0 0-1.512-3.023l1.036-1.59 1.878 4.719zm3.203 1.707c-.437 0-.8-.36-.8-.8 0-.442.363-.801.8-.801a.802.802 0 0 1 0 1.601zM20 18.594a3.206 3.206 0 0 1-3.2-3.2c0-.996.462-1.894 1.184-2.48l1.735 2.64c.12.2.36.239.562.122.2-.121.239-.36.117-.563l-1.695-2.64c.395-.18.836-.278 1.297-.278 1.762 0 3.2 1.442 3.2 3.2 0 1.761-1.438 3.199-3.2 3.199zm0 0"/>
</svg>
